X: 29099
T: Nell Davy's
R: reel
M: 4/4
K: Gmajor
B2GB AGFA|DEFG ABcA|d^cde fdd^c|dedc AGFA|
BG~G2 AGFA|DEFG ABcA|d^cde fddc|1 AGFA GBdc:|2 AGFA G2Bd||
gfga bgaf|gfga bgde|=f2c=f A=fc=f|=fca=f g=fdg|
gfga bgaf|gfga bgde|=fca=f g=fdc|AGFA G2Bd|
gfga bgaf|gfga bgde|=f2c'=f a=fc'=f|=fc'a=f g=fdg|
gfga bgaf|gfga bgde|=fca=f g=fdc|AGFA GBdc||
B3 d c3 A|B2dB cBAG|F/E/DAD BDAD|F/E/DAD E/F/GAc|
BG~G2 AGFA|DEFG ABcA|d^cde fddc|1 AGFA GBdc:|2 AGFA G3 A||

